X: 11500
T: Eddie Kelly's
R: reel
M: 4/4
K: Dminor
c|:AGEC DEDC|A,DED A,DDC|DEFE F3 A|Bdfe d3 c|
AGEC A,3 =B,|C3 D EGc=B|dfed cGAc|BGFG FDDc:|
|:fddc dcde|fddd fdeg|fddc defd|eggg ecce|
fddc defd|eaaa gedg|eccc c3 A|BAGE FD D2:|

